X:1
T:Binchester, CM
T:William Croft, 1707
T:Binchester, CM
T:Public Domain
C:William Croft, 1707
Z:Public Domain
%%score ( 1 2 ) ( 3 4 )
L:1/8
M:3/4
K:G
V:1 treble 
V:2 treble 
V:3 bass 
V:4 bass 
V:1
 [DB]2 [DA]2 [DG]2 | [DF]6 | [Gd]2 [Fc]2 [GB]2 | [FA]4 A2 | [GB]4 (GF) | (F2 E2) [G^c]2 | %6
 [Fd]4 [FA]2 | [FA]3 [GB] [^GB]2 | [Ac]4 [DB]2 | [EB]4 [FA]2 | [^DB]4 | [Dd]2 | [EG]2 [FA]2 [GB]2 | %13
 [GB]4 ([FA]G) | [DG]6 |] %15
V:2
 x6 | x6 | x6 | x4 A2 | x4 d2 | d4 x2 | x6 | x6 | x6 | x6 | x4 | x2 | x6 | x5 G | x6 |] %15
V:3
 G,2 [F,A,]2 [G,B,]2 | [D,A,]6 | B,2 [A,C]2 [G,D]2 | [D,D]4 [F,D]2 | [G,D]4 [B,D]2 | %5
 (D2 D2) [A,D]2 | [D,D]4 [D,D]2 | [D,D]4 [E,D]2 | [A,,C]4 [B,,G,]2 | [C,G,]4 [C,A,]2 | [B,,F,]4 | %11
 [B,,G,]2 | [C,C]4 [G,,B,]2 | [D,D]4 [D,C]2 | [G,,B,]6 |] %15
V:4
 G,2 x4 | x6 | B,2 x4 | x6 | x6 | A,4 x2 | x6 | x6 | x6 | x6 | x4 | x2 | x6 | x6 | x6 |] %15

